svg/color/cre8.svg

<?xml version="1.0" encoding="UTF-8" ?>
<!DOCTYPE svg PUBLIC "-//W3C//DTD SVG 1.1//EN" "http://www.w3.org/Graphics/SVG/1.1/DTD/svg11.dtd">
<svg width="217pt" height="250pt" viewBox="0 0 217 250" version="1.1" xmlns="http://www.w3.org/2000/svg">
<g id="#ffffffff">
<path fill="#ffffff" opacity="1.00" d=" M 0.00 0.00 L 106.84 0.00 C 100.33 5.07 92.65 8.27 85.85 12.89 C 80.19 16.70 73.89 19.40 68.25 23.23 C 63.76 26.22 58.86 28.52 54.20 31.21 C 45.28 36.75 36.07 41.77 26.99 47.04 C 18.72 53.02 8.62 56.18 1.20 63.36 C 0.90 63.61 0.30 64.10 0.00 64.34 L 0.00 0.00 Z" />
<path fill="#ffffff" opacity="1.00" d=" M 109.34 0.00 L 217.00 0.00 L 217.00 187.61 C 196.15 175.94 175.57 163.72 154.67 152.12 C 139.53 142.87 123.92 134.41 108.66 125.34 C 112.75 122.52 117.00 119.95 121.22 117.34 C 143.17 104.96 164.79 91.98 186.78 79.66 C 196.28 73.47 206.46 68.40 216.12 62.46 C 186.75 45.70 157.72 28.35 128.26 11.74 C 121.99 7.74 115.06 4.83 109.34 0.00 Z" />
<path fill="#ffffff" opacity="1.00" d=" M 0.00 187.69 C 15.39 196.77 31.10 205.25 46.43 214.44 C 66.69 225.47 86.19 237.80 106.38 248.94 C 106.36 249.21 106.32 249.74 106.30 250.00 L 0.00 250.00 L 0.00 187.69 Z" />
<path fill="#ffffff" opacity="1.00" d=" M 191.23 202.44 C 200.03 198.13 208.26 192.80 217.00 188.38 L 217.00 250.00 L 108.46 250.00 C 114.83 245.75 121.89 242.64 128.18 238.26 C 149.62 227.08 170.12 214.21 191.23 202.44 Z" />
</g>
<g id="#03e3e4ff">
<path fill="#03e3e4" opacity="1.00" d=" M 106.84 0.00 L 109.34 0.00 C 115.06 4.83 121.99 7.74 128.26 11.74 C 157.72 28.35 186.75 45.70 216.12 62.46 C 206.46 68.40 196.28 73.47 186.78 79.66 C 164.79 91.98 143.17 104.96 121.22 117.34 C 117.00 119.95 112.75 122.52 108.66 125.34 L 108.41 126.04 C 104.45 121.12 98.38 118.86 92.88 116.16 C 68.98 102.86 45.47 88.86 21.60 75.50 C 14.83 71.40 7.81 67.72 1.20 63.36 C 8.62 56.18 18.72 53.02 26.99 47.04 C 36.07 41.77 45.28 36.75 54.20 31.21 C 58.86 28.52 63.76 26.22 68.25 23.23 C 73.89 19.40 80.19 16.70 85.85 12.89 C 92.65 8.27 100.33 5.07 106.84 0.00 Z" />
</g>
<g id="#a4ef16ff">
<path fill="#a4ef16" opacity="1.00" d=" M 0.00 64.34 C 0.30 64.10 0.90 63.61 1.20 63.36 C 7.81 67.72 14.83 71.40 21.60 75.50 C 45.47 88.86 68.98 102.86 92.88 116.16 C 97.41 119.32 102.20 122.09 106.91 124.97 C 98.94 131.44 89.80 136.14 80.72 140.83 C 65.17 150.41 49.01 158.94 33.43 168.46 C 22.15 174.46 11.55 181.71 0.00 187.19 L 0.00 64.34 Z" />
</g>
<g id="#00ee88ff">
<path fill="#00ee88" opacity="1.00" d=" M 92.88 116.16 C 98.38 118.86 104.45 121.12 108.41 126.04 C 108.16 128.02 108.03 130.01 107.97 132.01 C 108.20 169.02 107.94 206.03 108.11 243.04 C 108.21 245.15 107.60 247.21 106.38 248.94 C 86.19 237.80 66.69 225.47 46.43 214.44 C 31.10 205.25 15.39 196.77 0.00 187.69 L 0.00 187.19 C 11.55 181.71 22.15 174.46 33.43 168.46 C 49.01 158.94 65.17 150.41 80.72 140.83 C 89.80 136.14 98.94 131.44 106.91 124.97 C 102.20 122.09 97.41 119.32 92.88 116.16 Z" />
</g>
<g id="#00b4eeff">
<path fill="#00b4ee" opacity="1.00" d=" M 108.41 126.04 L 108.66 125.34 C 123.92 134.41 139.53 142.87 154.67 152.12 C 175.57 163.72 196.15 175.94 217.00 187.61 L 217.00 188.38 C 208.26 192.80 200.03 198.13 191.23 202.44 C 170.12 214.21 149.62 227.08 128.18 238.26 C 121.89 242.64 114.83 245.75 108.46 250.00 L 106.30 250.00 C 106.32 249.74 106.36 249.21 106.38 248.94 C 107.60 247.21 108.21 245.15 108.11 243.04 C 107.94 206.03 108.20 169.02 107.97 132.01 C 108.03 130.01 108.16 128.02 108.41 126.04 Z" />
</g>
</svg>

<?xml version="1.0" encoding="utf-8"?>
<!-- Generator: Adobe Illustrator 26.0.3, SVG Export Plug-In . SVG Version: 6.00 Build 0)  -->
<svg version="1.1" id="Layer_1" xmlns="http://www.w3.org/2000/svg" xmlns:xlink="http://www.w3.org/1999/xlink" x="0px" y="0px"
	 viewBox="0 0 217 250" style="enable-background:new 0 0 217 250;" xml:space="preserve">
<style type="text/css">
	.st0{fill:#03E3E4;}
	.st1{fill:#A4EF16;}
	.st2{fill:#00EE88;}
	.st3{fill:#00B4EE;}
</style>
<g id="_x23_03e3e4ff">
	<path class="st0" d="M106.8,0h2.5c5.7,4.8,12.7,7.7,18.9,11.7c29.5,16.6,58.5,34,87.9,50.7c-9.7,5.9-19.8,11-29.3,17.2
		c-22,12.3-43.6,25.3-65.6,37.7c-4.2,2.6-8.5,5.2-12.6,8l-0.2,0.7c-4-4.9-10-7.2-15.5-9.9C69,102.9,45.5,88.9,21.6,75.5
		c-6.8-4.1-13.8-7.8-20.4-12.1C8.6,56.2,18.7,53,27,47c9.1-5.3,18.3-10.3,27.2-15.8c4.7-2.7,9.6-5,14-8c5.6-3.8,11.9-6.5,17.6-10.3
		C92.7,8.3,100.3,5.1,106.8,0z"/>
</g>
<g id="_x23_a4ef16ff">
	<path class="st1" d="M0,64.3c0.3-0.2,0.9-0.7,1.2-1c6.6,4.4,13.6,8,20.4,12.1c23.9,13.4,47.4,27.4,71.3,40.7
		c4.5,3.2,9.3,5.9,14,8.8c-8,6.5-17.1,11.2-26.2,15.9c-15.6,9.6-31.7,18.1-47.3,27.6c-11.3,6-21.9,13.2-33.4,18.7V64.3z"/>
</g>
<g id="_x23_00ee88ff">
	<path class="st2" d="M92.9,116.2c5.5,2.7,11.6,5,15.5,9.9c-0.2,2-0.4,4-0.4,6c0.2,37,0,74,0.1,111c0.1,2.1-0.5,4.2-1.7,5.9
		c-20.2-11.1-39.7-23.5-59.9-34.5c-15.3-9.2-31-17.7-46.4-26.8v-0.5c11.6-5.5,22.1-12.7,33.4-18.7c15.6-9.5,31.7-18.1,47.3-27.6
		c9.1-4.7,18.2-9.4,26.2-15.9C102.2,122.1,97.4,119.3,92.9,116.2z"/>
</g>
<g id="_x23_00b4eeff">
	<path class="st3" d="M108.4,126l0.2-0.7c15.3,9.1,30.9,17.5,46,26.8c20.9,11.6,41.5,23.8,62.3,35.5v0.8c-8.7,4.4-17,9.8-25.8,14.1
		c-21.1,11.8-41.6,24.6-63.1,35.8c-6.3,4.4-13.3,7.5-19.7,11.7h-2.2c0-0.3,0.1-0.8,0.1-1.1c1.2-1.7,1.8-3.8,1.7-5.9
		c-0.2-37,0.1-74-0.1-111C108,130,108.2,128,108.4,126z"/>
</g>
</svg>
